X: 1
T: Humours Of Ballyconnell, The
M: 4/4
L: 1/8
R: hornpipe
K: Amix
|:ed|B/c/d ef ecAB|AGEF GABd|cdcB AGEG|ABcd e2dB|
cdcB cBAB|AEAB cdcB|ABAG ED E/F/G|A2AG A2:|
|:E2|ABcd e2dc|dcdf g2ed|efga ba g/a/b|a2ag a2af|
gedB =c3B|AGAB cdcB|ABAG ED E/F/G|A2AG A2:|
